!!!SOCIAL_FUNCTION:	love songs
!!!PDT:	1913
!!!OTL: No_110_Weeping_for_My_Love.krn
!!!REG: Great_Lakes
!!!LANG: Non-Tone
!!!LING_GROUP: Algonquin
**kern
*staff1
*clefG2
*k[b-e-a-d-g-c-]
*M2/4
4b-\
=1
[4ee-\
16.ee-\LL]
32ff\JK
8ee-\J
=2
8.b-\L
16b-\Jk
4ee-\
=3
[2b-\
=4
4b-\]
4ee-\
=5
[4b-\
16.b-\LL]
32cc-\JK
8b-\J
=6
8.a-/L
16g-/Jk
4b-\
=7
[2a-/
=8
4a-/]
4ee-\
=9
[4a-/
16.a-/LL]
32b-/JK
8a-/J
=10
8.g-/L
16e-/Jk
4g-/
=11||
*M3/4
2.e-/
=12||
*M2/4
4ee-\
4dd-\
=13
(4.ee-\
8b-\)
=14
4ee-\
4b-\
=15
[2a-/
=16
4.a-/]
16b-\LL
16b-\JJ
=17||
*M3/4
4..ee-\
16ff\
4ee-\
=18
4dd-\
4cc-\
4ee-\
=19
(4.a-/
8e-/)
g-q/
4g-/
=20||
*M2/4
[2e-/
=21
4e-/]
4e-/
=22
4a-/
8a-/L
16b-/L
16a-/JJ
=23
8.g-/L
16e-/Jk
4g-/
=24
[2e-/
=25
4e-/]
4r
==
*-
